X:907
T:Reel 907
M:4/4
K:Gmaj
L:1/8
Bc|dGBG AGFD|GBAG  (3EFG AF|DGBG Acdg| (3fed cA G2:| (3def |g2ge fgaf|g2gb agfe|dggf defd|cAFA G2Bc|dggf bgag|fdfd adde|=f2fd edec|dBcA G2|
